X: 83
T: Roslyn Castle  v.2
P: piffero secondo a0488
O: Greg Rice
%R: march
F: http://ancients.sudburymuster.org/mus/ssp/pdf/garfieldF.pdf
Z: 2019 John Chambers <jc:trillian.mit.edu>
M: 4/4
L: 1/8
K: Em
E>D \
| B,2G>F E2FE | CDE2 B,2E>D \
| B,2B2 e2dc | B2AG E2FG \
| CDE2 B,2ED | E2D2 B,2EF \
| G2A2 B2FE | E2B,2 E,2 :|
|: E2 \
| G4 B4 | d2c2 BFGA \
| B2c2 B2AB | d2c2 cBAG \
| CDE2 B,2ED | E2D2 B,2EF \
| G2A2 B2FE | E2B,2 E,2 :|


